X:1
T:James Gibb editions
T:Tender Shepherd, thou hast stilled - Barnby
%%score [ ( 1 2 ) ( 3 4 ) ]
L:1/8
Q:1/4=69
M:4/4
K:F
V:1 treble nm="Midi_74"
V:2 treble 
V:3 bass nm="Midi_74"
V:4 bass 
V:1
"^78. 78. 77""^Tender Shepherd, thou hast stilled""^Joseph Barnby\n(1838-96)""^Catherine Winkworth\n(1827-78)" F2 F2 | %1
 E2 F2 G2 A2 | F4 || B2 A2 | G2 F2 E2 D>E | D2 C2 || C2 F2 | E2 F2 G2 A2 | F4 ||[M:4/4] G2 A2 | %10
 B2 D2 E2 FG | G2 F2 || F2 F2 | G2 F2 F2 F2 | (G2 F2) || F2 F2 | FG AB c2 GA | F4 || B4 A4 |] %19
V:2
 C2 C2 | C2 C2 D2 E2 | F4 || F2 F2 | D2 D2 C2 =B,2 | =B,2 C2 || C2 C2 | C2 C2 D2 ^C2 | D4 || %9
[M:4/4] D2 C2 | B,2 D2 C2 DE | E2 F2 || F2 F2 | _E2 A,2 A,2 E2 | D4 || D2 D2 | C2 F2 E2 E2 | F4 || %18
 F4 F4 |] %19
V:3
 A,2 A,2 | G,2 A,2 B,2 B,2 | (A,2 C2) || B,2 C2 | D2 B,2 G,2 G,2 | G,2 G,2 || A,2 G,F, | %7
 G,2 A,2"^1" G,2 E,2 | (F,2 A,2) ||[M:4/4] G,2 ^F,2 | G,2 G,2 G,2 B,2 | B,2 A,2 || %12
"^1 Tender Shepherd, Thou hast stilled\nNow Thy little lamb’s brief weeping.\nAh, how peaceful and how mild\nIn its narrow bed ’tis sleeping!\nAnd no sigh of anguish sore\nHeaves that little bosom more.\n\n2 In this world of pain and care,\nLord, Thou wouldst no longer leave it;\nTo Thy heav'nly meadows fair\nLovingly Thou dost receive it.\nClothed in robes of spotless white,\nNow it dwells with Thee in light.\n\n3 O Lord Jesus, grant that we\nThere may live where it is living,\nAnd the blissful pastures see\nThat its heav'nly food are giving.\nLost awhile our treasured love,\nGained forever, safe above." F,2 F,2 | %13
 C2 _E2 E2 C2 | B,4 || A,2 G,2 | A,2 C2 B,2 B,2 | A,4 || D4 C4 |] %19
V:4
 F,2 F,2 | C,2 C,2 C,2 C,2 | (D,2 _E,2) || D,2 C,2 | B,,2 G,,2 C,2 F,2 | F,2 E,2 || F,2 D,2 | %7
 C,2 C,2 B,,2 A,,2 | (D,2 C,2) ||[M:4/4] B,,2 A,,2 | G,,2 B,,2 C,2 C,2 | F,2 F,2 || F,2 F,2 | %13
 A,,2 C,2 F,2 A,2 | (B,2 B,,2) || =B,,2 B,,2 | C,2 C,2 C,2 C,2 | F,4 || B,,4 F,4 |] %19

